packages/icons/src/svg/badge.svg

<svg xmlns="http://www.w3.org/2000/svg" viewBox="0 0 16 16"><path d="M4.00007,9l-4,4h3v3.00063l4-5.00063C6.7847,10.88294,4.00007,9,4.00007,9Zm8,0s-2.8812,1.906-3,2l4,5.00063V13h2.99987ZM8-.06274l.81288.91339L9.91342.31786l.40146,1.15494,1.22066-.07108-.07108,1.22066,1.15494.40146-.53279,1.10054L13,4.93726l-.91339.81288.53279,1.10054-1.15494.40146.07108,1.22066-1.22066-.07108L9.91342,9.55665,8.81288,9.02386,8,9.93726l-.81288-.91339-1.10054.53279L5.68512,8.40171l-1.22066.07108.07108-1.22066L3.3806,6.85067l.53279-1.10054L3,4.93726l.91339-.81288L3.3806,3.02384l1.15494-.40146L4.46447,1.40172l1.22066.07108L6.08658.31786,7.18712.85065Z"/></svg>

<svg xmlns="http://www.w3.org/2000/svg" viewBox="0 0 16 16">
	<path d="M4 9l-4 4h3v3l4-5c-.215-.117-3-2-3-2zm8 0s-2.881 1.906-3 2l4 5v-3h3zM8-.063l.813.914 1.1-.533.402 1.155 1.22-.071-.07 1.22 1.154.402-.532 1.1.913.813-.913.813.532 1.1-1.155.402.072 1.22-1.221-.07-.402 1.155-1.1-.533L8 9.937l-.813-.913-1.1.533-.402-1.155-1.22.07.07-1.22-1.154-.401.532-1.1L3 4.936l.913-.813-.532-1.1 1.155-.402-.072-1.22 1.221.07.402-1.154 1.1.533z"/>
</svg>
